X: 26098
T: McFadden's Handsome Daughter
R: reel
M: 4/4
K: Gmajor
|:D2DE GABG|AGAB dBAG|D2EF GBge|1 dBAc BGGE:|2 dBAc BGG2||
gdBd efge|d2BG AGEG|gdBd efge|dcBA GABd|
gdBd gdBG|A2BG AGEG|gfed efge|dcBA GABc||
d2de dBBB|dBgB aAAA|d2de dBAG|DEGA BAGB|
d2de dBBB|dBgB aAAA|Bdef gfge|dGBd gdBG||

